src/lib/packages/icons/src/assets/filled/home-dash-dollar.svg

<svg width="24" height="24" viewBox="0 0 24 24" fill="none" xmlns="http://www.w3.org/2000/svg">
<path fill-rule="evenodd" clip-rule="evenodd" d="M17.053 21H6.94707C5.73907 21 4.70409 20.136 4.48809 18.948L3.03301 10.966C2.90301 10.252 3.17003 9.52302 3.73003 9.06302L10.4111 3.56998C11.3341 2.81098 12.6651 2.81098 13.5881 3.56998L20.2701 9.06302C20.8311 9.52402 21.0971 10.252 20.9671 10.966L19.512 18.949C19.296 20.136 18.261 21 17.053 21ZM14.5 14.6131C14.5 13.5841 13.81 12.688 12.818 12.433L11.5511 12.114C11.3931 12.073 11.256 11.982 11.152 11.846C11.053 11.72 11 11.556 11 11.387C11 10.974 11.325 10.6391 11.725 10.6391H12.276C12.6451 10.6391 12.955 10.9251 12.997 11.3051C13.043 11.7171 13.424 12.0111 13.824 11.9681C14.236 11.9231 14.5331 11.5511 14.4871 11.1401C14.3791 10.1631 13.665 9.39698 12.751 9.19498V9.00004C12.751 8.58604 12.415 8.25004 12.001 8.25004C11.587 8.25004 11.251 8.58604 11.251 9.00004V9.19303C10.252 9.41403 9.50103 10.312 9.50103 11.387C9.50103 11.889 9.66699 12.379 9.96599 12.762C10.268 13.157 10.699 13.4421 11.183 13.5671L12.45 13.886C12.774 13.97 13.002 14.2691 13.002 14.6131C13.002 14.8131 12.925 15.0021 12.783 15.1451C12.646 15.2841 12.467 15.361 12.277 15.361H11.726C11.357 15.361 11.0471 15.075 11.0051 14.695C10.9591 14.283 10.579 13.988 10.178 14.032C9.76603 14.077 9.46906 14.449 9.51506 14.86C9.62306 15.837 10.337 16.6031 11.251 16.8051V17C11.251 17.414 11.587 17.75 12.001 17.75C12.415 17.75 12.751 17.414 12.751 17V16.807C13.165 16.716 13.546 16.509 13.851 16.198C14.27 15.773 14.5 15.2101 14.5 14.6131Z" fill="currentColor"/>
</svg>

<svg xmlns="http://www.w3.org/2000/svg" width="24" height="24" fill="none"><path fill="currentColor" fill-rule="evenodd" d="M17.053 21H6.947a2.5 2.5 0 0 1-2.459-2.052l-1.455-7.982a2 2 0 0 1 .697-1.903l6.681-5.493a2.501 2.501 0 0 1 3.177 0l6.682 5.493c.561.461.827 1.189.697 1.903l-1.455 7.983A2.5 2.5 0 0 1 17.053 21ZM14.5 14.613c0-1.029-.69-1.925-1.682-2.18l-1.267-.319a.745.745 0 0 1-.551-.727c0-.413.325-.748.725-.748h.551c.37 0 .679.286.721.666a.758.758 0 0 0 .827.663.75.75 0 0 0 .663-.828 2.237 2.237 0 0 0-1.736-1.945V9a.75.75 0 0 0-1.5 0v.193a2.245 2.245 0 0 0-1.75 2.194 2.245 2.245 0 0 0 1.682 2.18l1.267.319a.747.747 0 0 1 .552.727.75.75 0 0 1-.219.532.707.707 0 0 1-.506.216h-.551a.735.735 0 0 1-.72-.666.757.757 0 0 0-.828-.663.75.75 0 0 0-.663.828 2.237 2.237 0 0 0 1.736 1.945V17a.75.75 0 0 0 1.5 0v-.193a2.244 2.244 0 0 0 1.749-2.194Z" clip-rule="evenodd"/></svg>
